X: 10316
T: Dolphins Of Donegal Bay, The
R: jig
M: 6/8
K: Adorian
|:AGE AGE|ABc ~e3|dBG dBG|BAG dBG|
AGE AGE|ABc ~e3|dBg dBg|1 dBG A2G:|2 dBG A2g||
|:age ged|edB cAG|AGA cAc|dcd BGE|
~A3 cAc|dcd g2a|age edc|1 BAG Aeg:|2 BAG A2B||

